themes/wilks/static/images/logo-round.svg

<?xml version="1.0" encoding="UTF-8"?>
<svg width="993px" height="709px" viewBox="0 0 993 709" version="1.1" xmlns="http://www.w3.org/2000/svg" xmlns:xlink="http://www.w3.org/1999/xlink">
    <!-- Generator: Sketch 61 (89581) - https://sketch.com -->
    <title>Shape</title>
    <desc>Created with Sketch.</desc>
    <g id="Page-1" stroke="none" stroke-width="1" fill="none" fill-rule="evenodd">
        <g id="logo" fill="#272635" fill-rule="nonzero">
            <path d="M299,284 L410,284 C418.284271,284 425,290.715729 425,299 L425,547.478081 C425,555.762352 431.715729,562.478081 440,562.478081 L548.681138,562.478081 C556.965409,562.478081 563.681138,555.762352 563.681138,547.478081 L563.681138,16 C563.681138,7.71572875 570.396867,1 578.681138,1 L697.814,1 C706.098271,1 712.814,7.71572875 712.814,16 L712.814,547.478081 C712.814,555.762352 719.529729,562.478081 727.814,562.478081 L836.922848,562.478081 C845.207119,562.478081 851.922848,555.762352 851.922848,547.478081 L851.922848,16 C851.922848,7.71572875 858.638576,1 866.922848,1 L978,1 C986.284271,1 993,7.71572875 993,16 L993,694 C993,702.284271 986.284271,709 978,709 L299,709 C290.715729,709 284,702.284271 284,694 L284,299 C284,290.715729 290.715729,284 299,284 Z M121,284 C129.284271,284 136,290.715729 136,299 L136,694 C136,702.284271 129.284271,709 121,709 L15,709 C6.71572875,709 1.01453063e-15,702.284271 0,694 L0,299 C-1.01453063e-15,290.715729 6.71572875,284 15,284 L121,284 Z M410,0 C418.284271,-1.52179594e-15 425,6.71572875 425,15 L425,125 C425,133.284271 418.284271,140 410,140 L15,140 C6.71572875,140 1.01453063e-15,133.284271 0,125 L0,15 C-1.01453063e-15,6.71572875 6.71572875,1.52179594e-15 15,0 L410,0 Z" id="Shape"></path>
        </g>
    </g>
</svg>

<svg width="993" height="709" xmlns="http://www.w3.org/2000/svg"><path d="M299 284h111c8.284 0 15 6.716 15 15v248.478c0 8.284 6.716 15 15 15h108.681c8.284 0 15-6.716 15-15V16c0-8.284 6.716-15 15-15h119.133c8.284 0 15 6.716 15 15v531.478c0 8.284 6.716 15 15 15h109.109c8.284 0 15-6.716 15-15V16c0-8.284 6.716-15 15-15H978c8.284 0 15 6.716 15 15v678c0 8.284-6.716 15-15 15H299c-8.284 0-15-6.716-15-15V299c0-8.284 6.716-15 15-15zm-178 0c8.284 0 15 6.716 15 15v395c0 8.284-6.716 15-15 15H15c-8.284 0-15-6.716-15-15V299c0-8.284 6.716-15 15-15h106zM410 0c8.284 0 15 6.716 15 15v110c0 8.284-6.716 15-15 15H15c-8.284 0-15-6.716-15-15V15C0 6.716 6.716 0 15 0h395z" fill="#272635"/></svg>
